X:4
T:An Comhra Donn
T:Brown Coffin, The
R:hornpipe
D:Chieftains 1
Z:id:hn-hornpipe-4
M:C|
K:D
FG|ABAG FAde|fgfe dcdA|BGdB AFDE|FEED E2FG|
ABAG FAde|fgfe dcdA|BGdB AF (3EFG|F2D2 D2:|
|:fg|ag (3fed gfec|dcde fdAF|GA (3BAG FADF|Efgf e2fg|
ag (3fed gfec|dcde fdAF|GA (3BAG (3FGA EG|F2D2 D2:|

